src/app/assets/svg/notification.svg

<svg fill="currentColor" xmlns="http://www.w3.org/2000/svg" viewBox="0 0 16 22"><path d="M8 22c-1.7 0-3-1.3-3-3h6c0 1.7-1.3 3-3 3zm6.9-4H1.1c-.4 0-.8-.2-1-.6-.2-.4-.1-.8.1-1.2L2 13V8c0-1.4.6-2.8 1.5-3.9.9-1 2.1-1.8 3.5-2.1V1c0-.6.4-1 1-1s1 .4 1 1v1c1.4.3 2.6 1 3.5 2.1C13.4 5.2 14 6.6 14 8v5l1.8 3.2c.2.3.3.8.1 1.2-.2.4-.6.6-1 .6zM8 4c-1.4-.1-2.7.7-3.3 1.9-.5 1-.7 2-.7 3.1v4l-.9 2c-.1.2-.2.5 0 .7.1.2.3.3.6.3h8.6c.3 0 .5-.1.6-.3.1-.2.1-.5 0-.7l-.9-2V9c0-1.5-.5-2.9-1.4-4-.7-.7-1.7-1-2.6-1z"/></svg>

<?xml version="1.0" encoding="utf-8"?>
<!-- Generator: Adobe Illustrator 22.0.1, SVG Export Plug-In . SVG Version: 6.00 Build 0)  -->
<svg fill="currentColor" version="1.1" id="Layer_1" xmlns="http://www.w3.org/2000/svg" xmlns:xlink="http://www.w3.org/1999/xlink" x="0px" y="0px"
	 viewBox="0 0 16 22" style="enable-background:new 0 0 16 22;" xml:space="preserve">
<path id="notification" d="M8,22c-1.7,0-3-1.3-3-3v0h6c0,0,0,0,0,0s0,0,0,0C11,20.7,9.7,22,8,22z M14.9,18H1.1
	c-0.4,0-0.8-0.2-1-0.6C-0.1,17,0,16.6,0.2,16.2L2,13V8c0-1.4,0.6-2.8,1.5-3.9C4.4,3.1,5.6,2.3,7,2V1c0-0.6,0.4-1,1-1s1,0.4,1,1v1
	c1.4,0.3,2.6,1,3.5,2.1C13.4,5.2,14,6.6,14,8v5l1.8,3.2c0.2,0.3,0.3,0.8,0.1,1.2C15.7,17.8,15.3,18,14.9,18L14.9,18z M8,4L8,4
	C6.6,3.9,5.3,4.7,4.7,5.9C4.2,6.9,4,7.9,4,9v4l-0.9,2c-0.1,0.2-0.2,0.5,0,0.7C3.2,15.9,3.4,16,3.7,16h8.6c0.3,0,0.5-0.1,0.6-0.3
	c0.1-0.2,0.1-0.5,0-0.7L12,13V9c0-1.5-0.5-2.9-1.4-4C9.9,4.3,8.9,4,8,4L8,4z"/>
</svg>
